X: 250
M: 6/8
L: 1/8
K: D
def Tf2e | fag Tf2e | dBB TB2A | dBB TB2A |\
def Tf2e | fag f2e | aAA A2A | cAA A2 :|
|:\
ab/a/g/f/ ga/g/f/e/ | fg/f/e/d/ e2c | dBB TB2A | dBB B2A |\
ab/a/g/f/ ga/g/f/e/ | fg/f/e/d/ Te2c | aAA A2A | cAA A2A :|

